!!!COM: Joplin, Scott
!!!CDT: 1868/11/24/-1917/04/01/
!!!OTL: Leola
!!!ODE: Miss Minnie Wade
!!!ONB: Two Step
!!!ODT: 1905///
!!!PPR: American Music Syndicate
!!!PPP: St. Louis, Missouri
!!!PDT: 1905///
!!!ENC: Craig Stuart Sapp
!!!END: 2004/06/08/
!!!YEC: Copyright 2004 by Craig Stuart Sapp
!!!YEN: United States of America
**kern	**kern	**dynam
*staff2	*staff1	*staff1
*Ipiano	*Ipiano	*Ipiano
*>[I,A,A1,A,A2,B,B1,B,B2,C,D,D1,D,D2,E,E1,E,E2]	*>[I,A,A1,A,A2,B,B1,B,B2,C,D,D1,D,D2,E,E1,E,E2]	*>[I,A,A1,A,A2,B,B1,B,B2,C,D,D1,D,D2,E,E1,E,E2]
*>norep[I,A,A2,B,B2,C,D,D2,E,E2]	*>norep[I,A,A2,B,B2,C,D,D2,E,E2]	*>norep[I,A,A2,B,B2,C,D,D2,E,E2]
*>I	*>I	*>I
*clefF4	*clefG2	*clefG2
*k[b-e-a-d-]	*k[b-e-a-d-]	*k[b-e-a-d-]
*M2/4	*M2/4	*M2/4
*MM90	*MM90	*MM90
8EE- 8E-	8r	.
=1!|:	=1!|:	=1!|:
*>A	*>A	*>A
8AA- 8A-L	16r	.
.	16eee-LL	mf
8E- 8A- 8cJ	16ccc	.
.	16aa-JJ	.
8C 8cL	16ee-LK	p
.	8ff	.
8AAn 8AnJ	.	.
.	16ccJk	.
=2	=2	=2
8BB- 8B-L	16dd-LL	.
.	16g	.
8E- 8G 8d-J	16ff	.
.	16ee-JJ	.
8E- 8G 8d-L	16dd-LL	.
.	16b-	.
8EE- 8E-J	16g	.
.	16e-JJ	.
=3	=3	=3
8AA- 8A-L	16r	.
.	16eee-LL	.
8E- 8A- 8cJ	16ccc	.
.	16aa-JJ	.
8C 8cL	16ee-LK	.
.	8ff	.
8AAn 8AnJ	.	.
.	16ccJk	.
=4	=4	=4
8BB- 8B-L	16dd-LL	.
.	16g	.
8E- 8G 8d-J	16ff	.
.	16ee-JJ	.
4E- 4G 4d-	16dd-LL	.
.	16b-	.
.	16g	.
.	16e-JJ	.
=5	=5	=5
8En 8G 8cL	8b-L	.
8E 8G 8cJ	16ccL	.
.	16b-JJ	.
8F 8A- 8cL	16a-LL	.
.	16b-J	.
8A- 8c 8fJ	8ccJ	.
=6	=6	=6
8An 8c 8fL	8ee-L	.
8A 8c 8fJ	16ffL	.
.	16ee-JJ	.
8B- 8d- 8fL	16dd-LL	.
.	16ee-J	.
8B- 8d- 8fJ	8ffJ	.
=7	=7	=7
4Dn	16r	.
.	(16a-LL	.
.	16f	.
.	16BnJJ)	.
4F	16r	.
.	(16bnLL	.
.	16a-	.
.	16dnJJ)	.
=8	=8	=8
(8A-L	16r	.
.	16ddnLL	.
8BnJ	16f	.
.	16a-JJ	.
4c)	(16ee-LL	.
.	16a-	.
.	16cc	.
.	16ee-JJ)	.
=9	=9	=9
16FF 16FLL	16a- 16aa-LL	f
16EE- 16E-	16g 16gg	.
16DD- 16D-	16f 16ff	.
16CC 16CJJ	16e- 16ee-JJ	.
8BBB- 8BB-L	8d- 8f 8b- 8dd-L	.
8BBBn 8BBnJ	8dn 8f 8a- 8ddnJ	.
=10	=10	=10
*	*^	*
8CC 8CL	8.ee-L	[4e- [4a-	.
8E- 8A- 8cJ	.	.	.
.	16ccJk	.	.
8AA- 8A-L	16dd-LK	16e-] 16a-LK]	.
.	8ee-	8.f#J	.
8AAn 8AnJ	.	.	.
.	16ccJk	.	.
=11	=11	=11	=11
8BB- 8B-L	8.dd-L	[4g	.
8E- 8G 8d-J	.	.	.
.	16b-Jk	.	.
8EE- 8E-L	16ccLK	16gLK]	.
.	8dd-	8.gJ	.
8E- 8G 8d-J	.	.	.
.	16b-Jk	.	.
=12	=12	=12	=12
8AA- 8A-L	8.ccL	4a-	.
8E- 8A- 8cJ	.	.	.
.	16a-Jk	.	.
8AA- 8A-L	16b-LK	16r	.
.	8cc	8.e-	.
8GG- 8G-J	.	.	.
.	16a-Jk	.	.
*	*v	*v	*
=13	=13	=13
16FF 16FLL	16a- 16aa-LL	.
16EE- 16E-	16g 16gg	.
16DD- 16D-	16f 16ff	.
16CC 16CJJ	16e- 16ee-JJ	.
8BBB- 8BB-L	8d- 8f 8b- 8dd-L	.
8BBBn 8BBnJ	8dn 8f 8a- 8ddnJ	.
=14	=14	=14
*	*^	*
8CC 8CL	8.ee-L	[4e- [4a-	.
8E- 8A- 8cJ	.	.	.
.	16ccJk	.	.
8AA- 8A-L	16dd-LK	16e-] 16a-LK]	.
.	8ee-	8.f#J	.
8AAn 8AnJ	.	.	.
.	16ccJk	.	.
*	*v	*v	*
=15	=15	=15
8BB- 8B-L	8.g 8.dd-L	.
8E- 8G 8d-J	.	.
.	16b-Jk	.
8EE- 8E-L	16ccLL	.
.	16dd-	.
8E- 8G 8d-J	16f	.
.	16gJJ	.
=16	=16	=16
*>A1	*>A1	*>A1
8AA- 8A-L	[4a-	.
8E- 8A- 8cJ	.	.
8E- 8A- 8cL	8a-]	.
8EE- 8E-J	8r	.
=17:|!	=17:|!	=17:|!
*>A2	*>A2	*>A2
8AA- 8A-L	8a-L	.
8E- 8A- 8cJ	8ccJ	.
8E- 8A- 8cL	8cc 8ffL	.
8AAn 8AnJ	8cc 8ff#J	.
=18!|:	=18!|:	=18!|:
*>B	*>B	*>B
8BB- 8B-L	16r	.
.	16ee- 16ggLL	f
8E- 8G 8d-J	16ee- 16gg	.
.	16ff 16aa-JJ	.
8EE- 8E-L	16gg 16bb-LK	.
.	8ee- 8gg	.
8E- 8G 8d-J	.	.
.	16dd- 16ffJk	.
=19	=19	=19
8EE- 8E-L	16g 16b-LL	.
.	16a- 16bn	.
8E- 8G 8d-J	16an 16cc	.
.	[16b- [16dd-JJ	.
8EE- 8E-L	16b-] 16dd-LL]	.
.	16cc 16ee-J	.
8E- 8G 8d-J	8b- 8dd-J	.
=20	=20	=20
8AA- 8A-L	16r	.
.	16a- 16ccLL	.
8E- 8A- 8cJ	16a- 16cc	.
.	16b- 16dd-JJ	.
8EE- 8E-L	16cc 16ee-LK	.
.	8cc 8aa-	.
8E- 8A- 8cJ	.	.
.	16cc 16ffJk	.
=21	=21	=21
8AA- 8A-L	16cc 16ee-LL	.
.	16b- 16dd-	.
8E- 8A- 8cJ	16a- 16cc	.
.	[16cc [16ee-JJ	.
8AA- 8A-L	16cc] 16ee-LL]	.
.	16bn 16ddnJ	.
8FF# 8F#J	8cc 8ee-J	.
=22	=22	=22
8GG 8GL	16r	.
.	16b- 16dd-LL	.
8E- 8G 8d-J	16b- 16dd-	.
.	16cc 16ee-JJ	.
8EE- 8E-L	16dd- 16ffLK	.
.	8b- 8dd-	.
8E- 8G 8d-J	.	.
.	16g 16b-Jk	.
=23	=23	=23
8BB- 8B-L	16e- 16gLL	.
.	16f 16a-	.
8E- 8G 8d-J	16f# 16an	.
.	[16g [16b-JJ	.
8EE- 8E-L	16g] 16b-LL]	.
.	16a- 16ccJ	.
8E- 8G 8d-J	8b- 8dd-J	.
=24	=24	=24
8AA- 8A-L	16r	.
.	16a- 16ccLL	.
8E- 8A- 8cJ	16a- 16cc	.
.	16b- 16dd-JJ	.
8EE- 8E-L	16cc 16ee-LK	.
.	8cc 8aa-	.
8E- 8A- 8cJ	.	.
.	16cc 16ffJk	.
=25	=25	=25
8AA- 8A-L	16cc 16ee-LL	.
.	16cc 16aa-	.
8E- 8A- 8cJ	16dd- 16bb-	.
.	[16ee- [16cccJJ	.
8AA- 8A-L	16ee-] 16cccLL]	.
.	16cc 16ee-	.
8AAn 8AnJ	16cc 16ff	.
.	16cc 16ff#JJ	.
=26	=26	=26
8BB- 8B-L	16r	.
.	16ee- 16ggLL	.
8E- 8G 8d-J	16ee- 16gg	.
.	16ff 16aa-JJ	.
8EE- 8E-L	16gg 16bb-LK	.
.	8ee- 8gg	.
8E- 8G 8d-J	.	.
.	16dd- 16ffJk	.
=27	=27	=27
8EE- 8E-L	16g 16b-LL	.
.	16a- 16bn	.
8E- 8G 8d-J	16an 16cc	.
.	[16b- [16dd-JJ	.
8EE- 8E-L	16b-] 16dd-LL]	.
.	16cc 16ee-J	.
8E- 8G 8d-J	8b- 8dd-J	.
=28	=28	=28
8AA- 8A-L	16r	.
.	16a- 16ccLL	.
8E- 8A- 8cJ	16ee-	.
.	16a-JJ	.
*	*^	*
8EE- 8E-L	16g-LK	4g-	.
.	8cc 8ee-	.	.
8AAA- 8AA-J	.	.	.
.	16ffJk	.	.
=29	=29	=29	=29
8DD- 8D-L	8dd-L	2f 2a-	.
8F 8A- 8d-J	16a-L	.	.
.	16dd-JJ	.	.
8AAA- 8AA-L	16ffLK	.	.
.	8aa-	.	.
8F 8A- 8d-J	.	.	.
.	16ffJk	.	.
*	*v	*v	*
=30	=30	=30
8DD- 8D-L	16r	.
.	16b-LL	mf
8F 8A- 8d-J	16a-	.
.	16fJJ	.
8DDn 8DnL	16bnLK	.
.	8a-	.
8F 8A- 8BnJ	.	.
.	16fJk	.
=31	=31	=31
8EE- 8E-L	16ccLL	.
.	16a-	.
8E- 8A- 8cJ	16e-	.
.	[16ee-JJ	.
4F 4A- 4c	16ee-LL]	.
.	16cc	.
.	16e-	.
.	16fJJ	.
=32	=32	=32
*	*^	*
8FF 8FL	8.a-L	4dn 4f	.
8BBB- 8BB-J	.	.	.
.	16b-Jk	.	.
4EE- 4E-	16ccLK	4d- 4g	.
.	8b-	.	.
.	16ccJk	.	.
*	*v	*v	*
=33	=33	=33
*>B1	*>B1	*>B1
8AA- 8A-L	8c 8e- 8a-L	.
8E- 8A- 8cJ	8ccJ	.
8E- 8A- 8cL	8cc 8ffL	.
8AAn 8AnJ	8cc 8ff#J	.
=34:|!	=34:|!	=34:|!
*>B2	*>B2	*>B2
8AA- 8A-L	4c 4e- 4a-	.
8EE- 8E-	.	.
8AAA- 8AA-J	8a- 8cc 8ee- 8aa-	.
8EE- 8E-	8r	.
=35	=35	=35
*>C	*>C	*>C
8AA- 8A-L	16r	.
.	16eee-LL	mf
8E- 8A- 8cJ	16ccc	.
.	16aa-JJ	.
8C 8cL	16ee-LK	.
.	8ff	.
8AAn 8AnJ	.	.
.	16ccJk	.
=36	=36	=36
8BB- 8B-L	16dd-LL	.
.	16g	.
8E- 8G 8d-J	16ff	.
.	16ee-JJ	.
8E- 8G 8d-L	16dd-LL	.
.	16b-	.
8EE- 8E-J	16g	.
.	16e-JJ	.
=37	=37	=37
8AA- 8A-L	16r	.
.	16eee-LL	.
8E- 8A- 8cJ	16ccc	.
.	16aa-JJ	.
8C 8cL	16ee-LK	.
.	8ff	.
8AAn 8AnJ	.	.
.	16ccJk	.
=38	=38	=38
8BB- 8B-L	16dd-LL	.
.	16g	.
8E- 8G 8d-J	16ff	.
.	16ee-JJ	.
4E- 4G 4d-	16dd-LL	.
.	16b-	.
.	16g	.
.	16e-JJ	.
=39	=39	=39
8En 8G 8cL	8b-L	.
8E 8G 8cJ	16ccL	.
.	16b-JJ	.
8F 8A- 8cL	16a-LL	.
.	16b-J	.
8A- 8c 8fJ	8ccJ	.
=40	=40	=40
8An 8c 8fL	8ee-L	.
8A 8c 8fJ	16ffL	.
.	16ee-JJ	.
8B- 8d- 8fL	16dd-LL	.
.	16ee-J	.
8B- 8d- 8fJ	8ffJ	.
=41	=41	=41
4Dn	16r	.
.	(16a-LL	.
.	16f	.
.	16BnJJ)	.
4F	16r	.
.	(16bnLL	.
.	16a-	.
.	16dnJJ)	.
=42	=42	=42
(8A-L	16r	.
.	(16ddnLL	.
8BnJ	16f	.
.	16a-JJ)	.
4c)	(16ee-LL	.
.	16a-	.
.	16cc	.
.	16ee-JJ)	.
=43	=43	=43
16FF 16FLL	16a- 16aa-LL	f
16EE- 16E-	16g 16gg	.
16DD- 16D-	16f 16ff	.
16CC 16CJJ	16e- 16ee-JJ	.
8BBB- 8BB-L	8d- 8f 8b- 8dd-L	.
8BBBn 8BBnJ	8dn 8f 8a- 8ddnJ	.
=44	=44	=44
*	*^	*
8CC 8CL	8.ee-L	[4e- [4a-	.
8E- 8A- 8cJ	.	.	.
.	16ccJk	.	.
8AA- 8A-L	16dd-LK	16e-'] 16a-'LK]	.
.	8ee-	8.f#J	.
8AAn 8AnJ	.	.	.
.	16ccJk	.	.
=45	=45	=45	=45
8BB- 8B-L	8.dd-L	[4g	.
8E- 8G 8d-J	.	.	.
.	16b-Jk	.	.
8EE- 8E-L	16ccLK	16gLK]	.
.	8dd-	8.gJ	.
8E- 8G 8d-J	.	.	.
.	16b-Jk	.	.
=46	=46	=46	=46
8AA- 8A-L	8.ccL	4a-	.
8E- 8A- 8cJ	.	.	.
.	16a-Jk	.	.
8AA- 8A-L	16b-LK	16r	.
.	8cc	8.e-	.
8GG- 8G-J	.	.	.
.	16a-Jk	.	.
*	*v	*v	*
=47	=47	=47
16FF 16FLL	16a- 16aa-LL	.
16EE- 16E-	16g 16gg	.
16DD- 16D-	16f 16ff	.
16CC 16CJJ	16e- 16ee-JJ	.
8BBB- 8BB-L	8d- 8f 8b- 8dd-L	.
8BBBn 8BBnJ	8dn 8f 8a- 8ddnJ	.
=48	=48	=48
*	*^	*
8CC 8CL	8.ee-L	[4e- [4a-	.
8E- 8A- 8cJ	.	.	.
.	16ccJk	.	.
8AA- 8A-L	16dd-LK	16e-] 16a-LK]	.
.	8ee-	8.e#J	.
8AAn 8AnJ	.	.	.
.	16ccJk	.	.
*	*v	*v	*
=49	=49	=49
8BB- 8B-L	8.g 8.dd-L	.
8E- 8G 8d-J	.	.
.	16b-Jk	.
8EE- 8E-L	16ccLL	.
.	16dd-	.
8E- 8G 8d-J	16f	.
.	16gJJ	.
=50	=50	=50
8AA- 8A-L	4c 4a-	.
8E-	.	.
8AA-J	8a- 8cc 8aa-	.
8r	8r	.
=51	=51	=51
*>D	*>D	*>D
*k[b-e-a-d-g-]	*k[b-e-a-d-g-]	*k[b-e-a-d-g-]
8EE- 8E-L	16a-LL	.
.	16cc	mp
8A- 8c 8g-J	16ee-	.
.	[16cc [16gg- [16bb-JJ	.
8AAA- 8AA-L	16cc] 16gg-] 16bb-LL]	.
.	16ccJ	.
8A- 8c 8g-J	8cc 8aa- 8bb-J	.
=52	=52	=52
8EE- 8E-L	16a-LL	.
.	16cc	.
8A- 8c 8g-J	16ee-	.
.	[16cc [16gg- [16bb-JJ	.
8EE- 8E-L	16cc] 16gg-] 16bb-LL]	.
.	16ccJ	.
8EEn 8EnJ	8cc 8aa- 8bb-J	.
=53	=53	=53
8FF 8FL	16dd-LL	.
.	16aa-	.
8A- 8d- 8fJ	16ee-	.
.	16aa-JJ	.
8DD- 8D-L	16ffLL	.
.	16aa-	.
8A- 8d- 8fJ	16ee-	.
.	[16dd-JJ	.
=54	=54	=54
4Gn 4B- 4d- 4en	(16dd-LL]	.
.	16b-	.
.	16dd-	.
.	16eenJJ)	.
4A- 4d- 4f	(16ffLL	.
.	16a-	.
.	16b-	.
.	16dd-JJ)	.
=55	=55	=55
8EE- 8E-L	16a-LL	.
.	16cc	.
8A- 8c 8g-J	16ee-	.
.	[16cc [16gg- [16bb-JJ	.
8AAA- 8AA-L	16cc] 16gg-] 16bb-LL]	.
.	16ccJ	.
8A- 8c 8g-J	8cc 8gg- 8aa-J	.
=56	=56	=56
8EE- 8E-L	16a-LL	.
.	16cc	.
8A- 8c 8g-J	16ee-	.
.	[16cc [16gg- [16bb-JJ	.
8EE- 8E-L	16cc] 16gg-] 16bb-LL]	.
.	16ccJ	.
8EEn 8EnJ	8cc 8gg- 8aa-J	.
=57	=57	=57
8FF 8FL	16dd-LL	.
.	16aa-	.
8A- 8d- 8fJ	16ee-	.
.	16aa-JJ	.
8DD- 8D-L	16ffLL	.
.	16aa-	.
8A- 8d- 8fJ	16ee-	.
.	[16dd-JJ	.
=58	=58	=58
4Gn 4B- 4d- 4en	16dd-LL]	.
.	(16b-	.
.	16dd-	.
.	16eenJJ	.
16A- 16d- 16fLL	16ffLL)	.
16D- 16d-	16dd-	.
16C 16c	16a-	.
16BB- 16B-JJ	16g-JJ	.
=59	=59	=59
8AAn 8AnL	16fLL	.
.	16an	.
8A 8e- 8fJ	16cc	.
.	[16a [16ee- [16gg-JJ	.
8FF 8FL	16a] 16ee-] 16gg-LL]	.
.	16aJ	.
8A 8e- 8fJ	8a 8ee- 8ffJ	.
=60	=60	=60
8AAn 8AnL	16fLL	.
.	16an	.
8A 8e- 8fJ	16cc	.
.	[16a [16ee- [16gg-JJ	.
8FF 8FL	16a] 16ee-] 16gg-LL]	.
.	16aJ	.
8A 8e- 8fJ	8a 8ee- 8ffJ	.
=61	=61	=61
8BB- 8B-L	16b-LL	.
.	16ff	.
8B- 8d- 8fJ	16cc	.
.	16ffJJ	.
8BB- 8B-L	16dd-LL	.
.	16ff	.
8B- 8d- 8fJ	16cc	.
.	16b-JJ	.
=62	=62	=62
4An 4e- 4f	16r	.
.	(16ffLL	.
.	16dd-	.
.	16ccJJ)	.
8B- 8d- 8f	8b-	.
8r	8r	.
=63	=63	=63
8EE- 8E-L	16g-LL	.
.	16b-	.
8B- 8e- 8g-J	16gg-	.
.	16b-JJ	.
8GG- 8G-L	16dd-LK	.
.	8b- 8dd- 8bb-	.
8EEn 8EnJ	.	.
.	[16a- [16dd- [16aa-Jk	.
=64	=64	=64
8FF 8FL	8.a-] 8.dd-] 8.aa-L]	.
8A- 8d- 8fJ	.	.
.	16dd-Jk	.
8AA- 8A-L	(16ffLL	.
.	16f	.
8A- 8d- 8fJ	16b-	.
.	16a-JJ)	.
=65	=65	=65
*	*^	*
8EE- 8E-L	16gnLL	8.gnL	.
.	16b-	.	.
8Gn 8B- 8e-J	16dd-	.	.
.	([16g-JJ	16g-Jk	.
8AAA- 8AA-L	16g-LL	&(8g-L]&))	.
.	16ffJ	.	.
8G- 8A- 8cJ	8ee-J	8g- 8ccJ	.
*	*v	*v	*
=66	=66	=66
*>D1	*>D1	*>D1
8DD- 8D-L	8f 8dd-L	.
8F 8A- 8d-J	(16a-L	.
.	16b-JJ	.
8A- 8d- 8fL	16dd-LL	.
.	16cc	.
8DDn 8DnJ	16b-	.
.	16b--JJ)	.
=67:|!	=67:|!	=67:|!
*>D2	*>D2	*>D2
8DD- 8D-L	4f 4dd-	.
8D- 8d-J	.	.
8AA- 8A-L	(16ee-LL	.
.	16cc	.
8GG- 8G-J	16ee-	.
.	16ccJJ)	.
=68	=68	=68
*>E	*>E	*>E
*k[b-e-a-d-]	*k[b-e-a-d-]	*k[b-e-a-d-]
*^	*	*
8FL	4FF 4F	(16dd-LL	mf
.	.	16ee-	.
8F 8A- 8d-J	.	16ff	.
.	.	16ggJJ)	.
8F-L	4FF- 4F-	(16aa-LL	.
.	.	16dd-	.
8F- 8A- 8d-J	.	16ee-	.
.	.	16dd-JJ)	.
*v	*v	*	*
=69	=69	=69
8EE- 8E-L	8ccL	.
8E- 8A- 8cJ	16aa-L	.
.	[16ffJJ	.
8AA- 8A-L	16ffLL]	.
.	16cc	.
8AAn 8AnJ	16ee-	.
.	16ccJJ	.
=70	=70	=70
8BB- 8B-L	8dd-L	.
8E- 8G 8d-J	16ggL	.
.	[16ffJJ	.
8EE- 8E-L	16ffLL]	.
.	16dd-	.
8GG 8GJ	16ee-	.
.	16dd-JJ	.
=71	=71	=71
8AA- 8A-L	8ccL	.
8E- 8A- 8cJ	16aa-L	.
.	[16ffJJ	.
8AA- 8A-L	16ffLL]	.
.	16cc	.
8GG- 8G-J	16ee-	.
.	16ccJJ	.
=72	=72	=72
*^	*	*
8FL	4FF 4F	(16dd-LL	.
.	.	16ee-	.
8F 8A- 8d-J	.	16ff	.
.	.	16ggJJ)	.
*	*	*^	*
8D-L	4DD- 4D-	(16aa-LL	4ff	.
.	.	16gg	.	.
8F 8A- 8d-J	.	16aa-	.	.
.	.	16bb-JJ)	.	.
*v	*v	*	*	*
*	*v	*v	*
=73	=73	=73
8CC 8CL	8cc 8ff 8aa- 8cccL	.
8F 8A- 8cJ	16aa-L	.
.	[16ffJJ	.
8CC 8CL	16ffLL]	.
.	(16cc	.
8F 8A- 8cJ	16dd-	.
.	16ccJJ)	.
=74	=74	=74
8CC 8CL	8cc 8een 8gg 8bb-L	.
8En 8c 8d-J	16ggL	.
.	[16eenJJ	.
8CC 8CL	16eeLL]	.
.	(16cc	.
8E 8c 8d-J	16dd-	.
.	16ccJJ)	.
=75	=75	=75
4F 4A- 4c	4ff	.
8AA- 8A-L	(16ee-LL	mf
.	16cc	.
8GG- 8G-J	16ee-	.
.	16ccJJ)	.
=76	=76	=76
8FF 8FL	(16dd-LL	.
.	16ee-	.
8F 8A- 8d-J	16ff	.
.	16ggJJ)	.
8FF- 8F-L	(16aa-LL	.
.	16dd-	.
8F- 8A- 8d-J	16ee-	.
.	16dd-JJ)	.
=77	=77	=77
8EE- 8E-L	8ccL	.
8E- 8A- 8cJ	16aa-L	.
.	[16ffJJ	.
8AA- 8A-L	16ffLL]	.
.	16cc	.
8AAn 8AnJ	16ee-	.
.	16ccJJ	.
=78	=78	=78
8BB- 8B-L	8dd-L	.
8E- 8G 8d-J	16ggL	.
.	[16ffJJ	.
8EE- 8E-L	16ffLL]	.
.	16dd-	.
8GG 8GJ	16ee-	.
.	16dd-JJ	.
=79	=79	=79
8AA- 8A-L	8ccL	.
8E- 8A- 8cJ	16aa-L	.
.	[16ffJJ	.
8AA- 8A-L	16ffLL]	.
.	16cc	.
8GG- 8G-J	16ee-	.
.	16ccJJ	.
=80	=80	=80
8FF 8FL	(16dd-LL	.
.	16ee-	.
8F 8A- 8d-J	16ff	.
.	16ggJJ)	.
8FF- 8F-L	(16aa-LL	.
.	16gg	.
8F- 8A- 8d-J	16aa-	.
.	16bb-JJ)	.
=81	=81	=81
8EE- 8E-L	8cc 8aa- 8cccL	.
8E- 8A- 8cJ	16bb-L	.
.	[16ffJJ	.
8AA- 8A-L	16ffLL]	.
.	16cc	.
8AAn 8AnJ	16ee-	.
.	16ccJJ	.
=82	=82	=82
8BB- 8B-L	8dd-L	.
8E- 8G 8d-J	16ggL	.
.	[16ffJJ	.
8EE- 8E-L	16ffLL]	.
.	16gJ	.
8E- 8G 8d-J	8ee-J	.
=83	=83	=83
*>E1	*>E1	*>E1
8AA- 8A-L	4a-	.
8E- 8A- 8cJ	.	.
8AA- 8A-L	(16ee-LL	.
.	16cc	.
8GG- 8G-J	16ee-	.
.	16ccJJ)	.
=84:|!	=84:|!	=84:|!
*>E2	*>E2	*>E2
8AA- 8A-L	4c 4a-	.
8EE- 8E-	.	.
8AAA- 8AA-J	8a- 8cc 8aa-	.
==	==	==
*-	*-	*-
!!!ENC: Craig Stuart Sapp
!!!END: 2008/02/23
!!!EEV: 2018/06/01
